X: 4
T:April Waltz
M:3/4
L:1/4
C:Taz Tarry
S:Copyright B.Tarry,  12th. April 1998
R:Waltz
K:G
DGA|B>AG|DGB|c>BA|B>cB|BAG|DEF|E>DD|!DGA|B>AG|DGB|c>BA|B>cB|DEF|GBA|G3||
